assets/images/logo.svg

<svg xmlns="http://www.w3.org/2000/svg" width="50" height="50" fill="none" viewBox="0 0 36 35"><ellipse cx="21.405" cy="14.397" fill="#0065D1" rx="10.248" ry="10.248" transform="rotate(141.598 21.4052 14.3974)"/><ellipse cx="21.405" cy="14.397" fill="url(#paint0_linear_101_3)" fill-opacity=".2" rx="10.248" ry="10.248" transform="rotate(141.598 21.4052 14.3974)" style="mix-blend-mode:multiply"/><path fill="#0065D1" d="M11.971 10.4233C11.4267 11.7133 11.1475 13.1021 11.1503 14.5049L11.1825 32.3943C12.6782 32.3917 14.1587 32.101 15.5396 31.5388C16.9204 30.9767 18.1745 30.1541 19.2303 29.118C20.286 28.0819 21.1888 26.8891 21.6927 25.5004C21.9159 24.8854 21.9127 24.502 21.9073 23.8556L21.9069 23.8164L21.8716 4.15862C20.4876 4.08867 19.104 4.30458 17.8051 4.79321C16.5062 5.28184 15.3191 6.03297 14.3161 7.00087C13.3132 7.96877 12.5153 9.13319 11.971 10.4233Z"/><defs><linearGradient id="paint0_linear_101_3" x1="21.405" x2="17.238" y1="14.397" y2="10.913" gradientUnits="userSpaceOnUse"><stop offset=".158"/><stop offset=".366" stop-opacity=".75"/><stop offset=".573" stop-opacity=".5"/><stop offset=".802" stop-opacity=".25"/><stop offset="1" stop-opacity="0"/></linearGradient></defs></svg>

<svg xmlns="http://www.w3.org/2000/svg" width="50" height="50" fill="none" viewBox="0 0 36 35"><circle cx="21.405" cy="14.397" r="10.248" fill="#0065D1" transform="rotate(141.598 21.405 14.397)"/><circle cx="21.405" cy="14.397" r="10.248" fill="url(#a)" fill-opacity=".2" style="mix-blend-mode:multiply" transform="rotate(141.598 21.405 14.397)"/><path fill="#0065D1" d="M11.971 10.423a10.45 10.45 0 0 0-.82 4.082l.031 17.89a11.6 11.6 0 0 0 4.358-.856 11.4 11.4 0 0 0 3.69-2.421c1.056-1.036 1.959-2.229 2.463-3.618.223-.615.22-.998.214-1.644v-.04L21.872 4.16a10.1 10.1 0 0 0-4.067.634 10.2 10.2 0 0 0-3.489 2.208 10.3 10.3 0 0 0-2.345 3.422"/><defs><linearGradient id="a" x1="21.405" x2="17.238" y1="14.397" y2="10.913" gradientUnits="userSpaceOnUse"><stop offset=".158"/><stop offset=".366" stop-opacity=".75"/><stop offset=".573" stop-opacity=".5"/><stop offset=".802" stop-opacity=".25"/><stop offset="1" stop-opacity="0"/></linearGradient></defs></svg>
